dist/img/svg/benefits-02.svg

<svg width="20" height="19" viewBox="0 0 20 19" fill="none" xmlns="http://www.w3.org/2000/svg">
<path d="M8.30078 12.4805C9.79818 12.4805 11.1523 12.2201 12.3633 11.6992C13.5742 11.1654 14.5247 10.4102 15.2148 9.43359C15.918 8.45703 16.263 7.34375 16.25 6.09375C16.25 5.67708 16.1914 5.26693 16.0742 4.86328C15.9701 4.45964 15.8138 4.07552 15.6055 3.71094C15.4102 3.34635 15.1628 3.0013 14.8633 2.67578C14.5768 2.35026 14.2513 2.05078 13.8867 1.77734C13.5352 1.50391 13.138 1.25651 12.6953 1.03516C12.2656 0.813802 11.8099 0.63151 11.3281 0.488281C10.8464 0.332031 10.3385 0.214844 9.80469 0.136719C9.27083 0.0455729 8.72396 0 8.16406 0C6.67969 0 5.3125 0.273438 4.0625 0.820312C2.8125 1.35417 1.82292 2.08984 1.09375 3.02734C0.364583 3.96484 0 4.98698 0 6.09375C0 7.20052 0.273438 8.25521 0.820312 9.25781C1.36719 10.2604 2.15495 11.0221 3.18359 11.543C3.18359 11.543 3.18359 11.5495 3.18359 11.5625C3.18359 11.5755 3.18359 11.582 3.18359 11.582C3.18359 12.1549 2.82552 13.0534 2.10938 14.2773H2.12891C2.10286 14.3294 2.08984 14.388 2.08984 14.4531C2.08984 14.4922 2.08984 14.5312 2.08984 14.5703C2.10286 14.5964 2.11589 14.6289 2.12891 14.668C2.14193 14.694 2.15495 14.7201 2.16797 14.7461C2.19401 14.7721 2.22005 14.7982 2.24609 14.8242C2.27214 14.8372 2.29818 14.8503 2.32422 14.8633C2.36328 14.8763 2.39583 14.8893 2.42188 14.9023C2.46094 14.9154 2.5 14.9219 2.53906 14.9219C2.55208 14.9219 2.57161 14.9219 2.59766 14.9219C2.63672 14.9089 2.65625 14.9023 2.65625 14.9023H2.67578C3.04036 14.8503 3.46354 14.7135 3.94531 14.4922C4.4401 14.2578 4.88932 14.0039 5.29297 13.7305C5.70964 13.457 6.06771 13.2031 6.36719 12.9688C6.67969 12.7214 6.88151 12.5391 6.97266 12.4219C7.0638 12.4349 7.14844 12.4479 7.22656 12.4609C7.30469 12.474 7.3763 12.4805 7.44141 12.4805C7.51953 12.4805 7.59115 12.4805 7.65625 12.4805C7.72135 12.4805 7.79297 12.4805 7.87109 12.4805C7.91016 12.4805 7.97526 12.4805 8.06641 12.4805C8.15755 12.4805 8.23568 12.4805 8.30078 12.4805ZM6.46484 11.1328L5.66406 11.7969C5.5599 11.9271 5.33203 12.1354 4.98047 12.4219C4.62891 12.6953 4.29036 12.9297 3.96484 13.125C4.09505 12.7734 4.19271 12.4674 4.25781 12.207C4.32292 11.9336 4.36198 11.7578 4.375 11.6797V11.543L4.43359 10.7812L3.75 10.4297C2.92969 10.013 2.30469 9.40755 1.875 8.61328C1.45833 7.80599 1.25 6.96615 1.25 6.09375C1.25 5.20833 1.55599 4.39453 2.16797 3.65234C2.79297 2.91016 3.63281 2.32422 4.6875 1.89453C5.75521 1.46484 6.91406 1.25 8.16406 1.25C9.41406 1.25 10.5599 1.46484 11.6016 1.89453C12.6562 2.32422 13.4831 2.91016 14.082 3.65234C14.694 4.39453 15 5.20833 15 6.09375C15 6.82292 14.8307 7.51302 14.4922 8.16406C14.1536 8.80208 13.6914 9.34896 13.1055 9.80469C12.5195 10.2474 11.8099 10.599 10.9766 10.8594C10.1562 11.1198 9.27734 11.25 8.33984 11.25C7.94922 11.263 7.55208 11.2435 7.14844 11.1914L6.46484 11.1328ZM20 11.1328C20 9.40104 19.2318 8.08594 17.6953 7.1875C17.6562 7.5651 17.5521 8.01432 17.3828 8.53516C17.9036 8.89974 18.2617 9.28385 18.457 9.6875C18.6523 10.0781 18.75 10.5599 18.75 11.1328C18.75 11.4714 18.7109 11.7904 18.6328 12.0898C18.5547 12.3763 18.431 12.6497 18.2617 12.9102C18.0924 13.1576 17.8711 13.3919 17.5977 13.6133C17.3372 13.8216 17.0247 14.0234 16.6602 14.2188L16.0547 14.5117C16.0938 15.5794 16.1458 16.25 16.2109 16.5234C15.9766 16.3542 15.7617 16.1849 15.5664 16.0156C15.3711 15.8464 15.2148 15.6966 15.0977 15.5664C14.9805 15.4362 14.8763 15.319 14.7852 15.2148C14.707 15.1107 14.6484 15.026 14.6094 14.9609L14.5703 14.8828L13.9062 14.9805C13.8281 14.9935 13.7109 15.0065 13.5547 15.0195C13.3984 15.0195 13.2552 15.0195 13.125 15.0195H12.9492C11.3216 15.0195 9.98047 14.6094 8.92578 13.7891H7.14844L7.12891 13.8086C7.3763 14.1081 7.65625 14.388 7.96875 14.6484C8.28125 14.8958 8.61979 15.1237 8.98438 15.332C9.34896 15.5273 9.73958 15.6966 10.1562 15.8398C10.5729 15.9831 11.0156 16.0938 11.4844 16.1719C11.9531 16.237 12.4414 16.2695 12.9492 16.2695C12.9883 16.2695 13.0273 16.2695 13.0664 16.2695C13.1185 16.2695 13.1641 16.2695 13.2031 16.2695C13.2422 16.2695 13.2812 16.2695 13.3203 16.2695C13.5938 16.2695 13.8477 16.2565 14.082 16.2305C14.3685 16.556 14.8568 16.9792 15.5469 17.5C16.237 18.0208 16.875 18.3333 17.4609 18.4375C17.474 18.4375 17.4935 18.4375 17.5195 18.4375C17.5456 18.4375 17.5651 18.4375 17.5781 18.4375C17.6953 18.4375 17.793 18.3984 17.8711 18.3203C17.9492 18.2422 17.9883 18.1445 17.9883 18.0273C17.9883 17.9753 17.9753 17.9232 17.9492 17.8711C17.8841 17.7669 17.8125 17.6107 17.7344 17.4023C17.6562 17.194 17.5846 16.9727 17.5195 16.7383C17.4544 16.5039 17.3958 16.263 17.3438 16.0156C17.3047 15.7552 17.2852 15.5273 17.2852 15.332C17.2852 15.319 17.2852 15.306 17.2852 15.293C19.0951 14.3555 20 12.9688 20 11.1328Z" fill="#C78E66"/>
</svg>

<svg width="20" height="19" viewBox="0 0 20 19" fill="none" xmlns="http://www.w3.org/2000/svg"><path d="M8.3 12.48c1.498 0 2.852-.26 4.063-.78 1.211-.535 2.162-1.29 2.852-2.266.703-.977 1.048-2.09 1.035-3.34a4.39 4.39 0 0 0-.176-1.23 4.658 4.658 0 0 0-.469-1.153 5.052 5.052 0 0 0-.742-1.035 6.452 6.452 0 0 0-.976-.899 7.118 7.118 0 0 0-1.192-.742 7.882 7.882 0 0 0-1.367-.547A9.29 9.29 0 0 0 9.805.137 9.732 9.732 0 0 0 8.165 0C6.68 0 5.312.273 4.062.82c-1.25.534-2.24 1.27-2.97 2.207C.366 3.965 0 4.987 0 6.094 0 7.2.273 8.255.82 9.258a5.416 5.416 0 0 0 2.364 2.285v.039c0 .573-.358 1.471-1.075 2.695h.02a.388.388 0 0 0-.04.176v.117a.76.76 0 0 1 .04.098l.039.078.078.078.078.04a.76.76 0 0 1 .098.038c.039.013.078.02.117.02h.059l.058-.02h.02c.364-.052.788-.188 1.27-.41.494-.234.943-.488 1.347-.762a15.8 15.8 0 0 0 1.074-.761c.313-.248.515-.43.606-.547l.254.039c.078.013.15.02.214.02h.86zm-1.835-1.347l-.8.664c-.105.13-.333.338-.685.625-.351.273-.69.508-1.015.703a9.06 9.06 0 0 0 .293-.918c.065-.273.104-.45.117-.527v-.137l.059-.762-.684-.351a4.285 4.285 0 0 1-1.875-1.817 5.425 5.425 0 0 1-.625-2.52c0-.885.306-1.698.918-2.44.625-.743 1.465-1.329 2.52-1.758 1.067-.43 2.226-.645 3.476-.645s2.396.215 3.438.645c1.054.43 1.881 1.015 2.48 1.757.612.743.918 1.556.918 2.442a4.43 4.43 0 0 1-.508 2.07 5.075 5.075 0 0 1-1.387 1.64c-.585.443-1.295.795-2.128 1.055-.82.26-1.7.391-2.637.391a7.378 7.378 0 0 1-1.192-.059l-.683-.058zm13.535 0c0-1.732-.768-3.047-2.305-3.945-.039.377-.143.826-.312 1.347.52.365.879.749 1.074 1.152.195.391.293.873.293 1.446 0 .338-.04.657-.117.957-.078.286-.202.56-.371.82-.17.248-.39.482-.664.703-.26.209-.573.41-.938.606l-.605.293c.039 1.067.09 1.738.156 2.011a9.265 9.265 0 0 1-.645-.507 5.368 5.368 0 0 1-.468-.45c-.118-.13-.222-.247-.313-.351a3.117 3.117 0 0 1-.176-.254l-.039-.078-.664.098a4.711 4.711 0 0 1-.351.039h-.606c-1.627 0-2.969-.41-4.023-1.23H7.148l-.02.019c.248.3.528.579.84.84a8.13 8.13 0 0 0 1.016.683 8.01 8.01 0 0 0 2.5.84c.47.065.957.098 1.465.098h.371c.274 0 .528-.014.762-.04.286.326.775.75 1.465 1.27.69.52 1.328.833 1.914.938h.117a.398.398 0 0 0 .41-.41.346.346 0 0 0-.039-.157 2.753 2.753 0 0 1-.215-.469 7.92 7.92 0 0 1-.215-.664 11.672 11.672 0 0 1-.175-.722 4.679 4.679 0 0 1-.059-.684v-.039c1.81-.938 2.715-2.324 2.715-4.16z" fill="#C78E66"/></svg>
